!!!!SEGMENT: pl-wtm--1124-3622--001-004_rozycki-ludomir--5-preludes-op-2-no-4.krn
!!!cenid: 19xx:131
!!!COM: Różycki, Ludomir
!!!COM-rismID: pe50045573
!!!CDT: 1883-1953
!!!CNT: Polish
!!!GTL: 5 Préludes op. 2
!!!OTL: No. 4.
!!!OMV: 004
!!!PDT: 1924
!!!AGN: Secular; Prelude
!!!YEC: Copyright 2022 Narodowy Instytut Fryderyka Chopina (https://polishscores.org)
!!!YEM: License CC-BY-4.0 (https://creativecommons.org/licenses/by/4.0)
!!!SMS-siglum: PL-Wtm
!!!SMS-shelfmark: 1124 3622
!!!SMS-variant:
!!!SMS-altvar:
!!!SMS-shelfwork: 001-004 G
!!!NIFC-rismSourceID: 1001214520
!!!NIFC-rismChildID: 1001214520
!!!NIFC-islandoraID: pl-wtm:72703
!!!URL-pdf-islandora: https://repozytorium.nifc.pl/islandora/object/pl-wtm%3A72703/datastream/PDF/view
!!!URL-scan: https://polish.musicsources.pl/pl/lokalizacje/galeria/druki-muzyczne/18454/6 @EN{Scan on Polish Music Sources Website} @PL{Skany w portalu Dziedzictwo Muzyki Polskiej w otwartym dostępie}
!!!IIIF:
!!!ONB-nifc:
!!!OMD: Agitato.
!!!AIN: 1 piano
!!!key: c
**kern	**fing	**kern	**fing	**dynam
*part1	*part1	*part1	*part1	*part1
*staff2	*staff2	*staff1	*staff1	*
*ICklav	*	*ICklav	*	*
*Ipiano	*	*Ipiano	*	*
*I"M.M.halfnote=108	*	*I"M.M.halfnote=108	*	*
*clefF4	*	*clefG2	*	*
*k[b-e-a-]	*	*k[b-e-a-]	*	*
*c:	*	*c:	*	*
*M2/2	*	*M2/2	*	*
*met(c|)	*	*met(c|)	*	*
*>[A,A1,A,A2,B]	*	*>[A,A1,A,A2,B]	*	*
=1	=1	=1	=1	=1
*>A	*	*>A	*	*
*	*	*	*	*^
*ped	*below	*	*	*	*
!	!	!LO:TX:a:t=[half]=108	!	!	!LO:HP:b=2
8r	.	(>[2d^/ [2f#X	1 2	f	>
(8c#X\L	2	.	.	.	.
8cn\	1	.	.	.	.
8Bn\J	2	.	.	.	.
4B-X\	3	8d/] 8f#]	.	.	]
.	.	4e-/ 4g	1 3	<	.
4A-\)	4	.	.	.	.
.	.	8cc/	5	[[	.
=2	=2	=2	=2	=2	=2
*	*	*^	*	*	*
*ped	*	*	*	*	*	*
(4GG/	.	2.ee-/	8r	4	>	.
.	.	.	(8bn\L	2	.	.
!	!	!	!	!	!	!LO:HP:b=2
4G\	1	.	8an\	1	.	<
.	.	.	8a-X\J	2	]	.
4An\	3	.	8g\	1	.	.
.	.	.	4f#X\	2	.	.
4Bn\)	.	4dd/)	.	5	.	[
.	.	.	8fn\)	.	.	.
*	*	*v	*v	*	*	*
=3	=3	=3	=3	=3	=3
*ped	*	*	*	*	*
8r	.	(>[2d^/ [2f#X	1 2	.	.
!	!	!	!	!	!LO:HP:b=2
(8c#X\L	2	.	.	.	>
8cn\	1	.	.	.	.
8Bn\J	.	.	.	.	.
4B-X\	.	8d/] 8f#]	.	.	.
.	.	4e-/ 4g	1 3	<	.
4A-\)	.	.	.	.	]
.	.	8cc/	.	[[	.
!!LO:LB:g=original
=4	=4	=4	=4	=4	=4
*	*	*^	*	*	*
*ped	*	*	*	*	*	*
(4GG/	.	2.gg/	8r	5	>	.
.	.	.	(8bn\L 8ee-	2 4	.	.
!	!	!	!	!	!	!LO:HP:b=2
4G\	.	.	8an\	1	.	<
.	.	.	8a-X\J	.	]	.
4An\	.	.	8g\	.	.	[
.	.	.	4f#X\	5	.	.
4Bn\)	.	4dd/)	.	.	.	.
.	.	.	8fn\)	.	.	.
*	*	*v	*v	*	*	*
=5	=5	=5	=5	=5	=5
*ped	*	*	*	*	*
8r	.	([2an\ [2cc#X	1 2	.	.
(8g#X\L	2	.	.	.	.
8gn\	1	.	.	.	>
8f#X\J	2	.	.	.	.
4fn\	3	8a\] 8cc#]	.	.	.
.	.	4b-\ 4dd	1 3	<	]
4e-\)	4	.	.	.	.
.	.	8gg\	5	[[	.
=6	=6	=6	=6	=6	=6
*	*	*^	*	*	*
*ped	*	*	*	*	*	*
(4D\	.	2.bb-/	8r	4	>	.
.	.	.	8ff#X\L	2	.	.
!	!	!	!	!	!	!LO:HP:b=2
4d\	.	.	8een\	1	]	<
.	.	.	8ee-X\J	2	.	.
4en\	.	.	8dd\	1	.	.
.	.	.	4cc#X\	.	.	[
4f#X\)	.	4aan/)	.	5	.	.
.	.	.	8ccn\	1	.	.
*	*	*v	*v	*	*	*
!!LO:LB:g=original
=7	=7	=7	=7	=7	=7
*ped	*	*	*	*	*
8r	.	([2an\ [2cc#X	1 2	.	.
!	!	!	!	!	!LO:HP:b=2
(>8g#X\L	2	.	.	.	>
8gn\	1	.	.	.	.
8f#X\J	.	.	.	.	.
4fn\	.	8a\] 8cc#]	.	.	.
.	.	4b-\ 4dd	1 3	.	.
4e-\)	.	.	.	<	]
.	.	8gg\	5	[[	.
=8	=8	=8	=8	=8	=8
*	*	*^	*	*	*
*ped	*	*	*	*	*	*
(4D\	.	2.ddd/	8r	5	>	.
!	!	!	!	!	!	!LO:HP:b=2
.	.	.	(8ff#X\L 8bb-	2 4	.	<
4d\	1	.	8een\	1	]	.
.	.	.	8ee-X\J	.	.	.
4en\	3	.	8dd\	.	.	.
.	.	.	4cc#X\	.	.	.
4f#X\)	.	4aan/)	.	5	[	[
.	.	.	8ccn\)	.	.	.
*	*	*	*	*	*v	*v
=9	=9	=9	=9	=9	=9
*^	*	*	*	*	*
*ped	*	*	*	*	*	*
8E-^\L	2ryy	.	8r	8ryy	.	.
(8an\	.	1	(4ff#X/	4.b-\ 4.ee-	3	<
8g\	.	.	.	.	.	.
8e-\J)	.	3	8gg/	.	4	[
*	*ped	*	*	*	*	*
8g/L	4F\	.	8bb-/L	4cc\ 4ee-	5	.
8f/	.	1	8aa-X/	.	4	.
*	*ped	*	*	*	*	*
8e-/	4B-\	2 5	8gg/	4a-\ 4cc	5	.
8d/J	.	1	8ffn/J)	.	4	.
*v	*v	*	*	*	*	*
!!LO:LB:g=original
=10	=10	=10	=10	=10	=10
*ped	*	*	*	*	*
8C^\L	.	8r	8ryy	.	.
(8fn\	1	(4ff#X/	4.g\ 4.cc	4	.
8e-\	.	.	.	.	.
8c\J)	3	8gg/)	.	.	.
*ped	*	*	*	*	*
(8GG\L	.	8r	2ryy	.	.
8G\	1	8a-~\L 8cc 8ffn	.	5	.
8An\	2	8g~\ 8bn 8ee-	.	4	.
8Bn\J)	.	8f~\J 8a-X 8dd	.	5	.
=11	=11	=11	=11	=11	=11
*ped	*	*	*	*	*
8AA-^^\L	.	8r	8ryy	.	.
(8d\	1	(4bn/	4.e-\ 4.g	4	.
8c\	.	.	.	.	.
8A-\J)	3	8cc/)	.	.	.
*ped	*	*	*	*	*
(4FF/	.	(8d/L 8b-X	(4en\	5	.
.	.	8c/J 8a-	.	4	.
*ped	*	*	*	*	*
4GG/)	.	4Bn/) 4g	8e-\L	1 3 5	.
.	.	.	8d\J)	.	.
*	*	*clefF4	*	*	*
=12	=12	=12	=12	=12	=12
*ped	*	*	*	*	*
8AAA-^^</L	.	8r	8ryy	.	.
(8D/	.	(4Bn/	4.E-\ 4.G	4	<
8C/	.	.	.	.	.
8AA-/J)	.	8c/)	.	.	.
((4FFF/ 4FF	.	8r	2ryy	.	[
.	.	(4En\ 4G#X 4c#X	.	4	<
4GGG/)) 4GG	4	.	.	.	[
.	.	8F\) 8Bn 8e-X	.	1 3 5	<[
*	*	*v	*v	*	*
!!LO:LB:g=original
=13	=13	=13	=13	=13
8r	.	(2D\ 2F#X	1 3	p
(4AAn/ 4C#X	2 4	.	.	.
4AA-X/ 4Cn	1 3	.	.	.
.	.	4E-\ 4G	2 4	<
4GG/ 4BBn	2 4	.	.	.
.	.	4A-\) 4c	3 5	[[
8FF/) 8AA-	.	.	.	.
=14	=14	=14	=14	=14
8r	.	(2D\ 2F#X	.	.
(4AAn/ 4C#X	.	.	.	.
4AA-X/ 4Cn	.	.	.	.
.	.	4E-\ 4G	.	<
4GG/ 4BBn	.	.	.	.
.	.	4A-\) 4c	.	[[
8FF/) 8AA-	.	.	.	.
!	!	!LO:CL:ed	!	!
*	*	*clefG2	*	*
=15	=15	=15	=15	=15
*>A1	*	*>A1	*	*
*	*	*^	*	*
!	!	!LO:TX:t=P:problem:brakujący klucz G2	!	!	!
!	!	!LO:TX:b:i:t=m.d.	!	!	!
[1FF [<1C	1 5	1B-<	2rb	1	mf
.	.	.	(>2d/	3	.
*	*	*v	*v	*	*
=16	=16	=16	=16	=16
1FF] 1C]	.	2An</ 2e-	1 4	.
.	.	2A-X</) 2f	2 5	.
*	*	*clefF4	*	*
!!LO:PB:g=original
=17:|!	=17:|!	=17:|!	=17:|!	=17:|!
*>A2	*	*>A2	*	*
!	!	!	!	!LO:HP:t=crescendo poco a poco
8r	.	(2En\ 2G#X	1 3	<
(4BBn/ 4D#X	2 4	.	.	.
4BB-X/ 4Dn	1 3	.	.	.
.	.	4F\ 4An	2 4	.
4AAn/ 4C#X	2 4	.	.	.
.	.	4B-\) 4d	3 5	.
8GG/) 8BB-	.	.	.	.
=18	=18	=18	=18	=18
*>B	*	*>B	*	*
8r	.	(2En\ 2G#X	.	.
(4BBn/ 4D#X	.	.	.	.
4BB-X/ 4Dn	.	.	.	.
.	.	4F\ 4An	.	.
4AAn/ 4C#X	.	.	.	.
.	.	4B-\) 4d	.	.
8GG/) 8BB-	.	.	.	.
*	*	*clefG2	*	*
=19	=19	=19	=19	=19
*ped	*	*	*	*
(4FF/	.	8r	.	f
.	.	((4d/ 4f#X	1 3	<
4C\) 4B-	1 3	.	.	.
.	.	8e-/)) 8g	.	[
*ped	*	*	*	*
(4AA-/	.	8r	.	.
.	.	((4g/ 4bn	1 3	<
4E-\) 4e-	3 (4)	.	.	.
.	.	8a-/)) 8cc	.	[
!!LO:LB:g=original
=20	=20	=20	=20	=20
*ped	*	*	*	*
(4FF/	.	8r	.	.
.	.	((4d/ 4f#X	1 3	<
4C\) 4B-	.	.	.	.
.	.	8e-/)) 8g	.	[
*ped	*	*	*	*
(4AA-/	.	8r	.	.
.	.	((4g/ 4bn	.	<
4E-\) 4e-	.	.	.	.
.	.	8a-/)) 8cc	.	[
=21	=21	=21	=21	=21
*ped	*	*	*	*
(8AAn/L	5	8r	.	ff
8E-/J	3	((4dd\ 4ff#X	.	<
4c\)	.	.	.	.
.	.	8ee-\)) 8gg	.	[
*ped	*	*	*	*
(8BB-\L	5	8r	.	.
8G\J	2	(8eee-\L 8ggg	3 5	>
4e-^\)	.	8ddd\ 8fff#X	2 4	.
.	.	8bb-\J) 8eee-	1 3	]
=22	=22	=22	=22	=22
*ped	*	*	*	*
(8AAn/L	.	8r	.	.
8E-/J	.	((4dd\ 4ff#X	.	<
4c^\)	.	.	.	.
.	.	8ee-\)) 8gg	.	[
*ped	*	*	*	*
(8BB-\L	.	8r	.	.
8G\J	.	(8eee-\L 8ggg	.	>
4e-^\)	.	8ddd\ 8fff#X	.	.
.	.	8bb-\J) 8eee-	.	]
!!LO:LB:g=original
=23	=23	=23	=23	=23
*ped	*	*	*	*
(8BBn\L	5	8r	.	.
*	*	*8va	*	*
8G\J	2	((4ggg\ 4gggg	5	.
4f#X^\)	1	.	.	.
.	.	8fffn\)) 8ffffn	4	.
*ped	*	*	*	*
(8C\L	.	8r	.	.
8G\J	.	((4ddd\ 4dddd	.	.
4a-^\)	.	.	.	.
.	.	8eee-\)) 8eeee-	.	.
=24	=24	=24	=24	=24
*ped	*	*	*	*
(8D\L	.	8r	.	.
8G\J	.	((4bbn\ 4bbbn	5-4	.
4an\)	.	.	.	.
.	.	8ddd\)) 8dddd	5	.
*ped	*	*	*	*
(8E-\L	.	8r	.	.
8c\J	.	(8ccc\L 8cccc	.	.
4bn\)	.	8aa-\ 8aaa-	4	.
.	.	8gg\J) 8ggg	.	.
*	*	*X8va	*	*
=25||	=25||	=25||	=25||	=25||
*M2/4	*	*M2/4	*	*
*ped	*	*	*	*
8r	.	((4.gg:\ 4.ccc: 4.ggg:	.	>
(8F\L	.	.	.	.
!LO:TX:a:i:t=rit.	!	!	!	!
8c\	.	.	.	.
8cc^\J)	.	8ff\)) 8fff	4	]
!!LO:LB:g=original
=26||	=26||	=26||	=26||	=26||
*M4/4	*	*M4/4	*	*
*ped	*	*	*	*
*	*	*	*	*^
8r	.	([2d/ [2f#X	1 2	.	.
!	!	!	!	!	!LO:HP:b=2
(8c#X\L	2	.	.	.	>
8cn\	1	.	.	.	.
8Bn\J	.	.	.	.	.
4B-X\	.	8d/] 8f#]	.	.	.
.	.	4e-/ 4g	1 3	<	.
4A-\)	.	.	.	.	]
.	.	8cc\)	5	[	.
*	*	*	*	*v	*v
=27||	=27||	=27||	=27||	=27||
*M2/4	*	*M2/4	*	*
*	*	*^	*	*
*ped	*	*	*	*	*
8r	.	(4gg/	2a-\ 2cc	.	[ >
(8F\L	.	.	.	.	.
!	!	!LO:TX:b:i:t=rit.	!	!	!
8c\	.	4ff/)	.	4	]
8b-^\J)	.	.	.	.	.
*	*	*v	*v	*	*
=28||	=28||	=28||	=28||	=28||
*M4/4	*	*M4/4	*	*
*ped	*	*	*	*
8r	.	(2d/ 2f#X	1 2	.
(8c#X\L	.	.	.	.
8cn\	.	.	.	.
[8Bn\J	.	.	.	.
8B\]	.	4e-/ 4g	1 3	.
4B-X\	.	.	.	.
.	.	4cc\)	.	.
8A-\)	.	.	.	.
!!LO:LB:g=original
=29	=29	=29	=29	=29
4r	.	4r	.	.
2.AA-/ 2.F	.	2.c-X/ 2.e-	.	pp
*	*	*clefF4	*	*
=30	=30	=30	=30	=30
*ped	*	*	*	*
!	!	!LO:TX:b:i:t=a tempo	!	!
(4CC/	.	8r	.	.
.	.	([4.D\ [4.F#X	1 2	.
8C/L	.	.	.	.
8BBn/J	.	.	.	.
*Xped	*	*	*	*
!	!	!LO:TX:b:i:t=abassando	!	!
4BB-X/	.	8D\] 8F#]	.	.
.	.	4E-\ 4G	1 3	.
4AA-/)	.	.	.	.
.	.	8c\)	.	.
=31	=31	=31	=31	=31
*ped	*	*	*	*
(4CC/	.	8r	.	.
.	.	([4.D\ [4.F#X	.	.
8C/L	.	.	.	.
8BBn/J	.	.	.	.
*Xped	*	*	*	*
4BB-X/	.	8D\] 8F#]	.	.
!	!	!LO:TX:b:i:t=rall.	!	!
.	.	[4E-\ [4G	.	.
4AA-/)	.	.	.	.
.	.	8E-\]) 8G] 8c	.	.
=32	=32	=32	=32	=32
*ped	*	*	*	*
1CC 1GG 1C	.	[1E- [1G [1c [1e-	.	.
=33	=33	=33	=33	=33
*8ba	*	*	*	*
2CCC/	.	2E-\] 2G] 2c] 2e-]	.	.
*X8ba	*	*	*	*
*Xped	*	*	*	*
==	==	==	==	==
*-	*-	*-	*-	*-
!!!system-decoration: {(s1,s2)}
!!!RDF**kern: < = below
!!!RDF**kern: > = above
!!!ENC: Filip Voros
!!!END: 2023-10-11
!!!EED: Marta Chmielewska
!!!EEV: 2023-10-23
